; HEADER_BLOCK_START
; QIDIStudio 02.04.01.10
; total layer number: 1000
; total filament length [mm] : 24594.25
; total filament volume [cm^3] : 59156.11
; total filament weight [g] : 75.13
; filament_density: 1.27
; filament_diameter: 1.75
; max_z_height: 200.00
; filament: 1
; HEADER_BLOCK_END

; EXECUTABLE_BLOCK_START
EXCLUDE_OBJECT_DEFINE NAME=Cube_id_0_copy_0 CENTER=195,195 POLYGON=[[145,145],[245,145],[245,245],[145,245],[145,145]]
M73 P0 R206
; FEATURE: Custom
DISABLE_BOX_HEATER
BOX_TEMP_SET VT0=0

;===== PRINT_PHASE_INIT =====
SET_PRINT_MAIN_STATUS MAIN_STATUS=print_start
M220 S100
M221 S100
SET_INPUT_SHAPER SHAPER_TYPE_X=mzv
SET_INPUT_SHAPER SHAPER_TYPE_Y=mzv
DISABLE_ALL_SENSOR
M1002 R1
M107
CLEAR_PAUSE
M140 S60
M141 S0
G29.0
G28

;===== BOX_PREPAR =====
BOX_PRINT_START EXTRUDER=0 HOTENDTEMP=250
M400
EXTRUSION_AND_FLUSH HOTEND=240

;===== CLEAR_NOZZLE =====
G1 Z20 F480
MOVE_TO_TRASH
G1 Y403.5 F2000

M106 P3 S100

M1004
M106 S0
M109 S240
G92 E0
M83
G1 E5 F80
G1 E250 F300
M400
M106 S255
G1 E-3 F1000
M104 S140
M109.1 S210
M204 S10000
M73 P0 R205
G1 Y403 F2000
G1 X163 F8000
G1 X145 F5000
G1 X163 F8000
G1 X145 F5000
G1 X175 F6000
G1 X163
G1 X175
G1 X163
G1 X175
G1 X163
G1 X180 F10000
G1 Y395 F6000
G1 X188
G1 Z-0.2 F480
M106 S255
M109.1 S150
G91
G1 X15 F200
G1 Y2
G1 X-15
G1 Y-2
G1 X15
G90
G2 I0.5 J0.5 F480
G2 I0.5 J0.5
G2 I0.5 J0.5
G1 Z10
G1 Y383 F12000
G1 X116
G1 Y403
G1 X163 F8000
G1 X145 F5000
G1 X163 F8000
G1 X145 F5000
G1 X175 F6000
G1 X163
G1 X175
G1 X163
G1 X175
G1 X163
G1 X180 F10000
G1 X195 Y195
M106 S0
M190 S60
M191 S0
M400
SET_OPERATING_CURRENT STEPPER=x VALUE=1500
G4 P400
SET_OPERATING_CURRENT STEPPER=y VALUE=1500
G4 P400
G1 Y0 F15000
G1 X15
G1 X3 F5000
G4 P1000
G1 X4 F1000
G1 X3 F5000
G4 P1000
G1 E-4 F1800
G1 X15 F3000

M400
SET_OPERATING_CURRENT STEPPER=x VALUE=1200
G4 P400
SET_OPERATING_CURRENT STEPPER=y VALUE=1200
G4 P2000
G1 X20 Y20 F15000
Z_TILT_ADJUST
G29
M1002 A1
G1 X380 Y5 F20000
M109 S240
ENABLE_ALL_SENSOR

;===== PRINT_START =====
SET_PRINT_MAIN_STATUS MAIN_STATUS=printing
SET_PRINT_STATS_INFO TOTAL_LAYER=1000
T0
M140 S60
M104 S240
M141 S0
G0 X195 Y1 F20000
G0 Z10 F480
G92 Z9.98
G4 P3000
probe samples=1
G91
G0 Z5 F480
G90
G1 X170 Y1 F20000
G91
G0 Z-4.8 F480
G90
G0 X190 E8 F720
G0 X195 E.3742 F1200
G0 X200 E.3742 F4800
G0 X205 E.3742 F1200
G0 X210 E.3742 F4800
G0 X215 E.3742 F1200
G91
M73 P1 R203
G1 X1 Z-0.3
G1 X4
G1 Z1 F480
G1 X-50 Y1.5 F20000
G1 Z-0.7 F480
G90
G0 X190 E10 F720
G0 X195 E.3742 F1200
G0 X200 E.3742 F4800
G0 X205 E.3742 F1200
G0 X210 E.3742 F4800
G0 X215 E.3742 F1200
G91
G1 X1 Z-0.3
G1 X4
G1 Z1 F480
G90
; MACHINE_START_GCODE_END
M106 S0
M106 P2 S0
SET_PRESSURE_ADVANCE ADVANCE=0.056; Override pressure advance value
; Filament start gcode
;VT0
M106 P3 S255
G90
G21
M83 ; use relative distances for extrusion
; CHANGE_LAYER
; Z_HEIGHT: 0.2
; LAYER_HEIGHT: 0.2
G1 E-.8 F1800
 ; timelapse without wipe tower
TIMELAPSE_TAKE_FRAME

G92 E0
SET_PRINT_STATS_INFO CURRENT_LAYER=1
M106 S0
M106 P2 S0
M204 S6000
G1 Z.4 F30000
; OBJECT_ID: 59
EXCLUDE_OBJECT_START NAME=Cube_id_0_copy_0
G1 X244.143 Y244.143
G1 Z.2
G1 E.8 F1800
; FEATURE: Inner wall
; LINE_WIDTH: 0.5
G1 F3000
M204 S500
G1 X145.857 Y244.143 E3.54871
G1 X145.857 Y145.857 E3.54871
G1 X244.143 Y145.857 E3.54871
G1 X244.143 Y244.083 E3.54654
M204 S6000
G1 X244.6 Y244.6 F30000
; FEATURE: Outer wall
G1 F3000
M204 S500
G1 X145.4 Y244.6 E3.58172
G1 X145.4 Y145.4 E3.58172
G1 X244.6 Y145.4 E3.58172
G1 X244.6 Y244.54 E3.57955
EXCLUDE_OBJECT_END NAME=Cube_id_0_copy_0
; CHANGE_LAYER
; Z_HEIGHT: 0.4
; LAYER_HEIGHT: 0.2
; WIPE_START
G1 F3000
G1 X242.6 Y244.541 E-.76
; WIPE_END
G1 E-.04 F1800
 ; timelapse without wipe tower
TIMELAPSE_TAKE_FRAME

G92 E0
SET_PRINT_STATS_INFO CURRENT_LAYER=2
M104 S250 ; set nozzle temperature
M140 S60 ; set bed temperature
M204 S10000
G17
G3 Z.6 I1.217 J0 P1  F30000
; OBJECT_ID: 59
EXCLUDE_OBJECT_START NAME=Cube_id_0_copy_0
G1 X244.398 Y244.398
G1 Z.4
G1 E.8 F1800
; FEATURE: Inner wall
; LINE_WIDTH: 0.45
G1 F4037
M204 S5000
G1 X145.602 Y244.398 E3.17692
G1 X145.602 Y145.602 E3.17692
G1 X244.398 Y145.602 E3.17692
G1 X244.398 Y244.338 E3.17499
M204 S10000
G1 X244.79 Y244.79 F30000
; FEATURE: Outer wall
; LINE_WIDTH: 0.42
G1 F4037
M204 S3000
G1 X145.21 Y244.79 E2.96615
G1 X145.21 Y145.21 E2.96615
G1 X244.79 Y145.21 E2.96615
M73 P1 R202
G1 X244.79 Y244.73 E2.96436
EXCLUDE_OBJECT_END NAME=Cube_id_0_copy_0
; CHANGE_LAYER
; Z_HEIGHT: 0.6
; LAYER_HEIGHT: 0.2
; WIPE_START
G1 F9547.055
M204 S10000
G1 X242.79 Y244.731 E-.76
; WIPE_END
G1 E-.04 F1800
 ; timelapse without wipe tower
TIMELAPSE_TAKE_FRAME

G92 E0
SET_PRINT_STATS_INFO CURRENT_LAYER=3
G17
G3 Z.8 I1.217 J0 P1  F30000
; OBJECT_ID: 59
EXCLUDE_OBJECT_START NAME=Cube_id_0_copy_0
G1 X244.398 Y244.398
G1 Z.6
G1 E.8 F1800
; FEATURE: Inner wall
; LINE_WIDTH: 0.45
G1 F4009
M204 S5000
G1 X145.602 Y244.398 E3.17692
G1 X145.602 Y145.602 E3.17692
G1 X244.398 Y145.602 E3.17692
G1 X244.398 Y244.338 E3.17499
M204 S10000
G1 X244.79 Y244.79 F30000
; FEATURE: Outer wall
; LINE_WIDTH: 0.42
G1 F4009
M204 S3000
G1 X145.21 Y244.79 E2.96615
G1 X145.21 Y145.21 E2.96615
M73 P2 R202
G1 X244.79 Y145.21 E2.96615
G1 X244.79 Y244.73 E2.96436
EXCLUDE_OBJECT_END NAME=Cube_id_0_copy_0
; CHANGE_LAYER
; Z_HEIGHT: 0.8
; LAYER_HEIGHT: 0.2
; WIPE_START
G1 F9547.055
M204 S10000
G1 X242.79 Y244.731 E-.76
; WIPE_END
G1 E-.04 F1800
 ; timelapse without wipe tower
TIMELAPSE_TAKE_FRAME

G92 E0
SET_PRINT_STATS_INFO CURRENT_LAYER=4
M106 S226.95
M106 P2 S76
G17
G3 Z1 I1.217 J0 P1  F30000
; OBJECT_ID: 59
EXCLUDE_OBJECT_START NAME=Cube_id_0_copy_0
G1 X244.398 Y244.398
G1 Z.8
G1 E.8 F1800
; FEATURE: Inner wall
; LINE_WIDTH: 0.45
G1 F4009
M204 S5000
G1 X145.602 Y244.398 E3.17692
G1 X145.602 Y145.602 E3.17692
G1 X244.398 Y145.602 E3.17692
G1 X244.398 Y244.338 E3.17499
M204 S10000
G1 X244.79 Y244.79 F30000
; FEATURE: Outer wall
; LINE_WIDTH: 0.42
G1 F4009
M204 S3000
G1 X145.21 Y244.79 E2.96615
G1 X145.21 Y145.21 E2.96615
G1 X244.79 Y145.21 E2.96615
G1 X244.79 Y244.73 E2.96436
EXCLUDE_OBJECT_END NAME=Cube_id_0_copy_0
; CHANGE_LAYER
; Z_HEIGHT: 1
; LAYER_HEIGHT: 0.2
; WIPE_START
G1 F9547.055
M204 S10000
G1 X242.79 Y244.731 E-.76
; WIPE_END
G1 E-.04 F1800
 ; timelapse without wipe tower
TIMELAPSE_TAKE_FRAME

G92 E0
SET_PRINT_STATS_INFO CURRENT_LAYER=5
G17
G3 Z1.2 I1.217 J0 P1  F30000
; OBJECT_ID: 59
EXCLUDE_OBJECT_START NAME=Cube_id_0_copy_0
G1 X244.398 Y244.398
G1 Z1
G1 E.8 F1800
; FEATURE: Inner wall
; LINE_WIDTH: 0.45
G1 F4009
M204 S5000
G1 X145.602 Y244.398 E3.17692
G1 X145.602 Y145.602 E3.17692
G1 X244.398 Y145.602 E3.17692
G1 X244.398 Y244.338 E3.17499
M204 S10000
G1 X244.79 Y244.79 F30000
; FEATURE: Outer wall
; LINE_WIDTH: 0.42
G1 F4009
M204 S3000
G1 X145.21 Y244.79 E2.96615
G1 X145.21 Y145.21 E2.96615
G1 X244.79 Y145.21 E2.96615
G1 X244.79 Y244.73 E2.96436
EXCLUDE_OBJECT_END NAME=Cube_id_0_copy_0
; CHANGE_LAYER
; Z_HEIGHT: 1.2
; LAYER_HEIGHT: 0.2
; WIPE_START
G1 F9547.055
M204 S10000
G1 X242.79 Y244.731 E-.76
; WIPE_END
G1 E-.04 F1800
 ; timelapse without wipe tower
TIMELAPSE_TAKE_FRAME

G92 E0
SET_PRINT_STATS_INFO CURRENT_LAYER=6
G17
G3 Z1.4 I1.217 J0 P1  F30000
; OBJECT_ID: 59
EXCLUDE_OBJECT_START NAME=Cube_id_0_copy_0
G1 X244.398 Y244.398
G1 Z1.2
G1 E.8 F1800
; FEATURE: Inner wall
; LINE_WIDTH: 0.45
G1 F4009
M204 S5000
G1 X145.602 Y244.398 E3.17692
G1 X145.602 Y145.602 E3.17692
G1 X244.398 Y145.602 E3.17692
G1 X244.398 Y244.338 E3.17499
M204 S10000
G1 X244.79 Y244.79 F30000
; FEATURE: Outer wall
; LINE_WIDTH: 0.42
G1 F4009
M204 S3000
G1 X145.21 Y244.79 E2.96615
G1 X145.21 Y145.21 E2.96615
G1 X244.79 Y145.21 E2.96615
G1 X244.79 Y244.73 E2.96436
EXCLUDE_OBJECT_END NAME=Cube_id_0_copy_0
; CHANGE_LAYER
; Z_HEIGHT: 1.4
; LAYER_HEIGHT: 0.2
; WIPE_START
G1 F9547.055
M204 S10000
G1 X242.79 Y244.731 E-.76
; WIPE_END
G1 E-.04 F1800
 ; timelapse without wipe tower
TIMELAPSE_TAKE_FRAME

G92 E0
SET_PRINT_STATS_INFO CURRENT_LAYER=7
G17
G3 Z1.6 I1.217 J0 P1  F30000
; OBJECT_ID: 59
EXCLUDE_OBJECT_START NAME=Cube_id_0_copy_0
G1 X244.398 Y244.398
G1 Z1.4
G1 E.8 F1800
; FEATURE: Inner wall
; LINE_WIDTH: 0.45
G1 F4009
M204 S5000
G1 X145.602 Y244.398 E3.17692
G1 X145.602 Y145.602 E3.17692
G1 X244.398 Y145.602 E3.17692
G1 X244.398 Y244.338 E3.17499
M204 S10000
G1 X244.79 Y244.79 F30000
; FEATURE: Outer wall
; LINE_WIDTH: 0.42
G1 F4009
M204 S3000
G1 X145.21 Y244.79 E2.96615
G1 X145.21 Y145.21 E2.96615
M73 P2 R201
G1 X244.79 Y145.21 E2.96615
G1 X244.79 Y244.73 E2.96436
EXCLUDE_OBJECT_END NAME=Cube_id_0_copy_0
; CHANGE_LAYER
; Z_HEIGHT: 1.6
; LAYER_HEIGHT: 0.2
; WIPE_START
G1 F9547.055
M204 S10000
G1 X242.79 Y244.731 E-.76
; WIPE_END
G1 E-.04 F1800
 ; timelapse without wipe tower
TIMELAPSE_TAKE_FRAME

G92 E0
SET_PRINT_STATS_INFO CURRENT_LAYER=8
G17
G3 Z1.8 I1.217 J0 P1  F30000
; OBJECT_ID: 59
EXCLUDE_OBJECT_START NAME=Cube_id_0_copy_0
G1 X244.398 Y244.398
G1 Z1.6
G1 E.8 F1800
; FEATURE: Inner wall
; LINE_WIDTH: 0.45
G1 F4009
M204 S5000
G1 X145.602 Y244.398 E3.17692
G1 X145.602 Y145.602 E3.17692
G1 X244.398 Y145.602 E3.17692
G1 X244.398 Y244.338 E3.17499
M204 S10000
G1 X244.79 Y244.79 F30000
; FEATURE: Outer wall
; LINE_WIDTH: 0.42
G1 F4009
M204 S3000
G1 X145.21 Y244.79 E2.96615
G1 X145.21 Y145.21 E2.96615
G1 X244.79 Y145.21 E2.96615
G1 X244.79 Y244.73 E2.96436
EXCLUDE_OBJECT_END NAME=Cube_id_0_copy_0
; CHANGE_LAYER
; Z_HEIGHT: 1.8
; LAYER_HEIGHT: 0.2
; WIPE_START
G1 F9547.055
M204 S10000
G1 X242.79 Y244.731 E-.76
; WIPE_END
G1 E-.04 F1800
 ; timelapse without wipe tower
TIMELAPSE_TAKE_FRAME

G92 E0
SET_PRINT_STATS_INFO CURRENT_LAYER=9
G17
G3 Z2 I1.217 J0 P1  F30000
; OBJECT_ID: 59
EXCLUDE_OBJECT_START NAME=Cube_id_0_copy_0
G1 X244.398 Y244.398
G1 Z1.8
G1 E.8 F1800
; FEATURE: Inner wall
; LINE_WIDTH: 0.45
G1 F4009
M204 S5000
G1 X145.602 Y244.398 E3.17692
G1 X145.602 Y145.602 E3.17692
G1 X244.398 Y145.602 E3.17692
G1 X244.398 Y244.338 E3.17499
M204 S10000
G1 X244.79 Y244.79 F30000
; FEATURE: Outer wall
; LINE_WIDTH: 0.42
G1 F4009
M204 S3000
G1 X145.21 Y244.79 E2.96615
G1 X145.21 Y145.21 E2.96615
G1 X244.79 Y145.21 E2.96615
G1 X244.79 Y244.73 E2.96436
EXCLUDE_OBJECT_END NAME=Cube_id_0_copy_0
; CHANGE_LAYER
; Z_HEIGHT: 2
; LAYER_HEIGHT: 0.2
; WIPE_START
G1 F9547.055
M204 S10000
G1 X242.79 Y244.731 E-.76
; WIPE_END
G1 E-.04 F1800
 ; timelapse without wipe tower
TIMELAPSE_TAKE_FRAME

G92 E0
SET_PRINT_STATS_INFO CURRENT_LAYER=10
G17
G3 Z2.2 I1.217 J0 P1  F30000
; OBJECT_ID: 59
EXCLUDE_OBJECT_START NAME=Cube_id_0_copy_0
G1 X244.398 Y244.398
G1 Z2
G1 E.8 F1800
; FEATURE: Inner wall
; LINE_WIDTH: 0.45
G1 F4009
M204 S5000
G1 X145.602 Y244.398 E3.17692
G1 X145.602 Y145.602 E3.17692
G1 X244.398 Y145.602 E3.17692
G1 X244.398 Y244.338 E3.17499
M204 S10000
G1 X244.79 Y244.79 F30000
; FEATURE: Outer wall
; LINE_WIDTH: 0.42
G1 F4009
M204 S3000
G1 X145.21 Y244.79 E2.96615
G1 X145.21 Y145.21 E2.96615
G1 X244.79 Y145.21 E2.96615
G1 X244.79 Y244.73 E2.96436
EXCLUDE_OBJECT_END NAME=Cube_id_0_copy_0
; CHANGE_LAYER
; Z_HEIGHT: 2.2
; LAYER_HEIGHT: 0.2
; WIPE_START
G1 F9547.055
M204 S10000
G1 X242.79 Y244.731 E-.76
; WIPE_END
G1 E-.04 F1800
 ; timelapse without wipe tower
TIMELAPSE_TAKE_FRAME

G92 E0
SET_PRINT_STATS_INFO CURRENT_LAYER=11
G17
G3 Z2.4 I1.217 J0 P1  F30000
; OBJECT_ID: 59
EXCLUDE_OBJECT_START NAME=Cube_id_0_copy_0
G1 X244.398 Y244.398
G1 Z2.2
G1 E.8 F1800
; FEATURE: Inner wall
; LINE_WIDTH: 0.45
G1 F4009
M204 S5000
G1 X145.602 Y244.398 E3.17692
G1 X145.602 Y145.602 E3.17692
G1 X244.398 Y145.602 E3.17692
G1 X244.398 Y244.338 E3.17499
M204 S10000
G1 X244.79 Y244.79 F30000
; FEATURE: Outer wall
; LINE_WIDTH: 0.42
G1 F4009
M204 S3000
G1 X145.21 Y244.79 E2.96615
G1 X145.21 Y145.21 E2.96615
G1 X244.79 Y145.21 E2.96615
G1 X244.79 Y244.73 E2.96436
EXCLUDE_OBJECT_END NAME=Cube_id_0_copy_0
; CHANGE_LAYER
; Z_HEIGHT: 2.4
; LAYER_HEIGHT: 0.2
; WIPE_START
G1 F9547.055
M204 S10000
G1 X242.79 Y244.731 E-.76
; WIPE_END
G1 E-.04 F1800
 ; timelapse without wipe tower
TIMELAPSE_TAKE_FRAME

G92 E0
SET_PRINT_STATS_INFO CURRENT_LAYER=12
G17
G3 Z2.6 I1.217 J0 P1  F30000
; OBJECT_ID: 59
EXCLUDE_OBJECT_START NAME=Cube_id_0_copy_0
G1 X244.398 Y244.398
G1 Z2.4
G1 E.8 F1800
; FEATURE: Inner wall
; LINE_WIDTH: 0.45
G1 F4009
M204 S5000
G1 X145.602 Y244.398 E3.17692
G1 X145.602 Y145.602 E3.17692
G1 X244.398 Y145.602 E3.17692
G1 X244.398 Y244.338 E3.17499
M204 S10000
G1 X244.79 Y244.79 F30000
; FEATURE: Outer wall
; LINE_WIDTH: 0.42
G1 F4009
M204 S3000
G1 X145.21 Y244.79 E2.96615
M73 P2 R200
G1 X145.21 Y145.21 E2.96615
G1 X244.79 Y145.21 E2.96615
G1 X244.79 Y244.73 E2.96436
EXCLUDE_OBJECT_END NAME=Cube_id_0_copy_0
; CHANGE_LAYER
; Z_HEIGHT: 2.6
; LAYER_HEIGHT: 0.2
; WIPE_START
G1 F9547.055
M204 S10000
G1 X242.79 Y244.731 E-.76
; WIPE_END
G1 E-.04 F1800
 ; timelapse without wipe tower
TIMELAPSE_TAKE_FRAME

G92 E0
SET_PRINT_STATS_INFO CURRENT_LAYER=13
G17
G3 Z2.8 I1.217 J0 P1  F30000
; OBJECT_ID: 59
EXCLUDE_OBJECT_START NAME=Cube_id_0_copy_0
G1 X244.398 Y244.398
G1 Z2.6
G1 E.8 F1800
; FEATURE: Inner wall
; LINE_WIDTH: 0.45
G1 F4009
M204 S5000
G1 X145.602 Y244.398 E3.17692
G1 X145.602 Y145.602 E3.17692
G1 X244.398 Y145.602 E3.17692
G1 X244.398 Y244.338 E3.17499
M204 S10000
G1 X244.79 Y244.79 F30000
; FEATURE: Outer wall
; LINE_WIDTH: 0.42
G1 F4009
M204 S3000
G1 X145.21 Y244.79 E2.96615
G1 X145.21 Y145.21 E2.96615
G1 X244.79 Y145.21 E2.96615
G1 X244.79 Y244.73 E2.96436
EXCLUDE_OBJECT_END NAME=Cube_id_0_copy_0
; CHANGE_LAYER
; Z_HEIGHT: 2.8
; LAYER_HEIGHT: 0.2
; WIPE_START
G1 F9547.055
M204 S10000
G1 X242.79 Y244.731 E-.76
; WIPE_END
G1 E-.04 F1800
 ; timelapse without wipe tower
TIMELAPSE_TAKE_FRAME

G92 E0
SET_PRINT_STATS_INFO CURRENT_LAYER=14
G17
G3 Z3 I1.217 J0 P1  F30000
; OBJECT_ID: 59
EXCLUDE_OBJECT_START NAME=Cube_id_0_copy_0
G1 X244.398 Y244.398
G1 Z2.8
G1 E.8 F1800
; FEATURE: Inner wall
; LINE_WIDTH: 0.45
G1 F4009
M204 S5000
M73 P3 R200
G1 X145.602 Y244.398 E3.17692
G1 X145.602 Y145.602 E3.17692
G1 X244.398 Y145.602 E3.17692
G1 X244.398 Y244.338 E3.17499
M204 S10000
G1 X244.79 Y244.79 F30000
; FEATURE: Outer wall
; LINE_WIDTH: 0.42
G1 F4009
M204 S3000
G1 X145.21 Y244.79 E2.96615
G1 X145.21 Y145.21 E2.96615
G1 X244.79 Y145.21 E2.96615
G1 X244.79 Y244.73 E2.96436
EXCLUDE_OBJECT_END NAME=Cube_id_0_copy_0
; CHANGE_LAYER
; Z_HEIGHT: 3
; LAYER_HEIGHT: 0.2
; WIPE_START
G1 F9547.055
M204 S10000
G1 X242.79 Y244.731 E-.76
; WIPE_END
G1 E-.04 F1800
 ; timelapse without wipe tower
TIMELAPSE_TAKE_FRAME

G92 E0
SET_PRINT_STATS_INFO CURRENT_LAYER=15
G17
G3 Z3.2 I1.217 J0 P1  F30000
; OBJECT_ID: 59
EXCLUDE_OBJECT_START NAME=Cube_id_0_copy_0
G1 X244.398 Y244.398
G1 Z3
G1 E.8 F1800
; FEATURE: Inner wall
; LINE_WIDTH: 0.45
G1 F4009
M204 S5000
G1 X145.602 Y244.398 E3.17692
G1 X145.602 Y145.602 E3.17692
G1 X244.398 Y145.602 E3.17692
G1 X244.398 Y244.338 E3.17499
M204 S10000
G1 X244.79 Y244.79 F30000
; FEATURE: Outer wall
; LINE_WIDTH: 0.42
G1 F4009
M204 S3000
G1 X145.21 Y244.79 E2.96615
G1 X145.21 Y145.21 E2.96615
G1 X244.79 Y145.21 E2.96615
G1 X244.79 Y244.73 E2.96436
EXCLUDE_OBJECT_END NAME=Cube_id_0_copy_0
; CHANGE_LAYER
; Z_HEIGHT: 3.2
; LAYER_HEIGHT: 0.2
; WIPE_START
G1 F9547.055
M204 S10000
G1 X242.79 Y244.731 E-.76
; WIPE_END
G1 E-.04 F1800
 ; timelapse without wipe tower
TIMELAPSE_TAKE_FRAME

G92 E0
SET_PRINT_STATS_INFO CURRENT_LAYER=16
G17
G3 Z3.4 I1.217 J0 P1  F30000
; OBJECT_ID: 59
EXCLUDE_OBJECT_START NAME=Cube_id_0_copy_0
G1 X244.398 Y244.398
G1 Z3.2
G1 E.8 F1800
; FEATURE: Inner wall
; LINE_WIDTH: 0.45
G1 F4009
M204 S5000
G1 X145.602 Y244.398 E3.17692
G1 X145.602 Y145.602 E3.17692
G1 X244.398 Y145.602 E3.17692
G1 X244.398 Y244.338 E3.17499
M204 S10000
G1 X244.79 Y244.79 F30000
; FEATURE: Outer wall
; LINE_WIDTH: 0.42
G1 F4009
M204 S3000
G1 X145.21 Y244.79 E2.96615
G1 X145.21 Y145.21 E2.96615
G1 X244.79 Y145.21 E2.96615
G1 X244.79 Y244.73 E2.96436
EXCLUDE_OBJECT_END NAME=Cube_id_0_copy_0
; CHANGE_LAYER
; Z_HEIGHT: 3.4
; LAYER_HEIGHT: 0.2
; WIPE_START
G1 F9547.055
M204 S10000
G1 X242.79 Y244.731 E-.76
; WIPE_END
G1 E-.04 F1800
 ; timelapse without wipe tower
TIMELAPSE_TAKE_FRAME

G92 E0
SET_PRINT_STATS_INFO CURRENT_LAYER=17
G17
G3 Z3.6 I1.217 J0 P1  F30000
